!!!COM: Lassus, Orlandus
!!!CDT: 1532-1594/06/14
!!!OPR: Geistliche Psalmen mit dreyen Stimmen
!!!ONM: 5
!!!OTL@@LA: Verba mea auribus
!!!OTL-incipit@@DE: Vernimb Herr meine Wort
**kern	**text	**kern	**text	**kern	**text
*staff3	*staff3	*staff2	*staff2	*staff1	*staff1
*Ivox	*	*Ivox	*	*Ivox	*
*I"Bassus	*	*I"Tenor	*	*I"Cantus	*
*I'B	*	*I'T	*	*I'C	*
*clefC3	*	*clefC1	*	*clefG2	*
*k[b-]	*	*k[b-]	*	*k[b-]	*
*g:dor	*	*g:dor	*	*g:dor	*
*M2/1	*	*M2/1	*	*M2/1	*
*met(C|)	*	*met(C|)	*	*met(C|)	*
*MM180	*	*MM180	*	*MM180	*
=1	=1	=1	=1	=1	=1
*xywh-#131:119,33,2799,548	*	*xywh-#75:110,75,2710,528	*	*xywh-#15:122,69,2746,524	*
!	!	!LO:TX:a:i:t=c.f.	!	!	!
2r	.	1b-	Ver-	2r	.
2B-	Ver-	.	.	2dd	Ver-
2G	-nimb	2b-	-nim̃	2dd	-nimb
2A	Herr	2a	Herr	2cc#	Herr
=2	=2	=2	=2	=2	=2
2B	mei-	2g	mei-	2dd	mei-
2c	-ne	2g	-ne	2ee	-ne
2d	wort/	1f#	wort/	1a	wort/
2d	und	.	.	.	.
=3	=3	=3	=3	=3	=3
1e	laß	1g	und	2r	.
.	.	.	.	2.cc	und
2f	sie	2a	laß	.	.
.	.	.	.	4dd	laß
2g	zu	2b-	sie	4ee-	sie
.	.	.	.	2dd	zu
=4	=4	=4	=4	=4	=4
2f	dir	2a	zu	.	.
.	.	.	.	4.cc	dir
2e-	kom-	2g	dir	.	.
.	.	.	.	8b-	.
.	.	.	.	8b-	.
.	.	.	.	16a	.
.	.	.	.	16g	.
*	*	*	*	*xywh-#15:118,601,2818,405	*
1d	-men	2f#	kom-	2a	.
.	.	2.g	-men	2b-	kum-
=5	=5	=5	=5	=5	=5
1d	ein/	.	.	1a	-men
.	.	8f#i	.	.	.
.	.	8e	.	.	.
.	.	2f#i	.	.	.
*	*	*xywh-#75:107,602,2726,427	*	*	*
2r	.	1g	ein/	4.g	ein/
.	.	.	.	8a	.
1G	merck	.	.	4.b-	.
.	.	.	.	8cc	.
=6	=6	=6	=6	=6	=6
.	.	1b-	Merck	2dd	.
*xywh-#131:109,479,2821,524	*	*	*	*	*
1g	an	.	.	4r	.
.	.	.	.	4ee-	Merck
.	.	2b-	an	2.dd	an
2f	du	2a	du	.	.
.	.	.	.	4a	du
=7	=7	=7	=7	=7	=7
2e-	trew-	2g	trew-	2b-	trew-
2c	-er	2g	-er	2cc	-er
1d	hort/	1f#	hort/	2a	hort/
.	.	.	.	1dd	die
=8	=8	=8	=8	=8	=8
2r	.	1g	die	.	.
2.c	die	.	.	2.ee	wol-
.	.	2a	wol-	.	.
2d	wol-	.	.	4ff	-be-
.	.	2b-	-be-	4dd	-dach-
4e-i	-be-	.	.	4g	-te
=9	=9	=9	=9	=9	=9
2f	-dach-	2a	-dach-	4r	.
.	.	.	.	4a	die
2e-	-ten	2g	-ten	4b-	wol-
.	.	.	.	4cc	-be-
2d	re-	2f#	re-	4a	-dach-
.	.	.	.	4dd	-te
*	*	*	*	*xywh-#15:118,998,2763,424	*
2e-X	-den	2.g	-den	8cc	re-
.	.	.	.	8b-	.
.	.	.	.	8b-	.
.	.	.	.	16a	.
.	.	.	.	16g	.
=10	=10	=10	=10	=10	=10
1d	mein/	.	.	2a	.
.	.	8f#i	.	.	.
.	.	8e	.	.	.
.	.	2f#i	.	2a	-den
2r	.	1g	mein/	2g	mein/
2e-	hab	.	.	2gg	hab
=11	=11	=11	=11	=11	=11
*	*	*xywh-#75:98,1007,2749,439	*	*	*
1e-i	acht	2r	.	1gg	acht
.	.	2g	Hab	.	.
2b-	mein	2g	acht	2dd	mein
1a	höch-	2d	mein	2ff	höch-
=12	=12	=12	=12	=12	=12
.	.	2f	höch-	2cc	-ste
2e	-ste	2g	-ste	2cc	zier/
2f	zier/	1a	zier/	2r	.
4r	.	.	.	2ee	auff
4c	auff	.	.	.	.
=13	=13	=13	=13	=13	=13
*xywh-#131:106,976,2804,434	*	*	*	*	*
1d	mein	2r	.	1ff	mein
.	.	2a	auff	.	.
2d	ge-	2b-	mein	2ff	ge-
2e-	-schrey/	2b-	ge-	2gg	-schrey
=14	=14	=14	=14	=14	=14
2r	.	2cc	-schrey	2ee-	in
2g	in	2b-	in	1dd	die-
2f	die-	2a	die-	.	.
2e-	-ser	2g	-ser	2cc	-ser
=15	=15	=15	=15	=15	=15
2d	not	1a	not/	2.f	not
2d.	bitt	.	.	.	.
.	.	.	.	4g	.
*	*	*	*	*xywh-#15:116,1423,2753,405	*
.	.	2r	.	2a	.
4c	ich	.	.	.	.
2B-	mit	2dd	Bit	2.ff	bitt
=16	=16	=16	=16	=16	=16
2A	gan-	2cc	ich	.	.
.	.	.	.	4ee	ich
2B-	-tzer	2b-	mit	2dd	mit
*	*	*xywh-#75:105,1422,2736,432	*	*	*
4f	gir	2a	gan-	2cc	gan-
4F	mit	.	.	.	.
8G	gan-	2g	-tzer	2b-	-tzer
8A	.	.	.	.	.
8B-	.	.	.	.	.
8c	.	.	.	.	.
=17	=17	=17	=17	=17	=17
4d	.	1f	gir/	4a	gir/
4A	-tzer	.	.	4cc	mit
2B-	gir/	.	.	4dd	gan-
.	.	.	.	4dd	-tzer
*xywh-#131:103,1395,2788,455	*	*	*	*	*
2r	.	1d	Mein	2ff	gir/
2B-	mein	.	.	4r	.
.	.	.	.	4ff	mein
=18	=18	=18	=18	=18	=18
2B-	Kö-	2f	Kö-	2dd	Kö-
2e-i	-nig	2g	-nig	2b-	-nig
2d	from	2a	from/	2ff	from̃/
2g	mein	2b-	mein	1dd	mein
=19	=19	=19	=19	=19	=19
2f#	Herr	2a	Herr	.	.
2g	uñ	2.g	und	2b-	Herr
1d	Gott.	.	.	1a	uñ
.	.	8f#i	.	.	.
.	.	8e	.	.	.
.	.	2f#i	.	.	.
=20	=20	=20	=20	=20	=20
2r	.	1g	Gott.	2g	Gott.
*	*ij	*	*	*	*ij
2G	mein	.	.	2b-	mein
*	*	*	*	*xywh-#15:118,1824,2727,534	*
2.B-	kö-	2r	.	4dd	Kö-
.	.	.	.	4ee	-nig
*	*	*	*ij	*	*
.	.	2d	mein	2ff	from
4c	-nig	.	.	.	.
=21	=21	=21	=21	=21	=21
2d	from	2f	Kö-	2.b-	mein
2e-i	mein	2g	-nig	.	.
.	.	.	.	8a	.
.	.	.	.	8g	.
1d	Herr	2a	from	1.f	.
.	.	2b-	mein	.	.
=22	=22	=22	=22	=22	=22
*	*	*xywh-#75:94,1828,2751,535	*	*	*
0d	uñ	2a	Herr	.	.
.	.	2g.	und	2b-	Herr
.	.	.	.	1a	und
.	.	8f#	.	.	.
.	.	8e	.	.	.
.	.	2f#	.	.	.
=23	=23	=23	=23	=23	=23
0Gll	Gott.	0gl	Gott.	0bl	Gott.
*	*Xij	*	*Xij	*	*Xij
==	==	==	==	==	==
*-	*-	*-	*-	*-	*-
!!!RDF**kern: l = terminal long
!!!RDF**kern: i = editorial accidental
!!!AGN: Psalm; Tricinium
!!!LIB: Ulenberg, Caspar
!!!LIB-CDT: 1548/12/24-1617/02/16
!!!YOR: https://mdz-nbn-resolving.de/details:bsb00075346
!!!YOR-alternative: https://mdz-nbn-resolving.de/details:bsb00072990
!!!YOO: München, Bayerische Staatsbibliothek
!!!URL-scan: https://www.digitale-sammlungen.de/de/view/bsb00075346?page=15 Cantus
!!!URL-scan: https://www.digitale-sammlungen.de/de/view/bsb00075346?page=75 Tenor
!!!URL-scan: https://www.digitale-sammlungen.de/de/view/bsb00075346?page=131 Bassus
!!!IIIF: https://api.digitale-sammlungen.de/iiif/presentation/v2/bsb00075346/manifest
!!!EED: Wolfgang Drescher
!!!END: 2022/12/22
!!!ENC: Wolfgang Drescher
!!!EEV: 2022/12/22
!!!title: @{ONM}. @{OTL} / <i>@{OTL-incipit@@DE}</i>